X:1
T:Title
%%score ( 1 2 ) ( 3 4 )
L:1/8
Q:1/4=105
M:9/8
K:Ab
V:1 treble nm="Strings 1, SOPRANO ALTO"
V:2 treble 
V:3 bass nm="Strings 1, TENOR BASS"
V:4 bass 
V:1
 z3 z3 EF[DG] | [CA]3 [CA]3 [Ec][DB][CA] | [DB]3 [DB]3 [CE][DG][CA] | [EB]3 [EB]3 dc[EB] | %4
 [Ec]6 E[=DF][_DG] | [CA]3 [CA]3 [Ec][DB][CA] | [DB]3 [DB]3 [CE][DG][EA] | [EB]3 [Ae]3 dc[EB] | %8
 [EA]6 [CA][DB][Ec] | [Fd]3 [Fd]3 [Af][Ge][Fd] | [Ec]3 [Ec]3 [Ec][EB][EA] | [GB]3 [Ge]3 =dc[Gd] | %12
 e2- [Ae-] [Be]3 EF[DG] | [CA]3 [EA]3 cB[EA] | [EB]3 [EB]3 [CE][DG][EA] | [EB]3 [Ae]3 dc[EB] | %16
 [EA]6 z3 |] %17
V:2
 z3 z3 .C3 | x9 | x9 | z3 z3 .E3 | x9 | x9 | x9 | z3 z3 .E3 | x9 | x9 | x9 | z3 z3 .G3 | %12
 .G3 z3 z3 | z3 z3 .E3 | x9 | z3 z3 .E3 | x9 |] %17
V:3
 z3 z3 [A,,A,]2 [A,,A,] | [A,,E,]3 [A,,E,]3 [A,,A,]2 [A,,A,] | z3 z3 .A,3 | z3 z3 .B,3 | %4
w: 1.~Take~ the~|shield~ of~ faith,~ my~|Hold~|in~|
 z3 z3 .G,3 | [A,,A,]3 [A,,E,]3 [A,,A,]2 [A,,A,] | z3 z3 .A,3 | z3 z3 .B,3 | [A,,C]6 A,2 A, | %9
w: And~|aw ful,~ bur nished~|Will~|foe~|flight.~ * *|
 [D,A,]3 [D,A,]3 [D,A,]2 [D,A,] | A,3 A,3 [A,E][A,D][A,C] | [E,E]3 [E,B,]3 B,2 B, | .B,3 z3 z3 | %13
w: ||||
 [A,,A,]3 [A,,C]3 ED[A,C] | [E,D]3 [E,D]3 E,-[E,B,][E,C] | z3 z3 .B,3 | [A,,A,C]6 z3 |] %17
w: ||||
V:4
 x9 | x9 | [E,G,]3 [E,G,]3 E,-[E,B,][E,A,] | [E,G,]3 [E,G,]3 E,-[E,A,][E,G,] | %4
w: ||* * * * it~|* * * * the~|
 A,6 E,-[E,A,][E,B,] | x9 | [E,G,]3 [E,G,]3 E,-[E,B,][E,C] | [E,D]3 [E,C]3 E,-[E,E][E,D] | x9 | %9
w: * * * its~||* * * * put~|* * * * to~||
 x9 | x9 | x9 | E,2- [E,-C] [E,D]3 [E,C]2 [E,B,] | z3 z3 .A,3 | z3 z3 .A,3 | %15
w: ||||||
 [E,D]3 [E,C]3 E,-[E,E][E,D] | x9 |] %17
w: ||

